X: 3033
T: Entry
%R: march
B: Henry Playford "Apollo's Banquet", London 1687 (5th Edition)
F: https://archive.org/details/apollosbanquetco01rugg
Z: 2017 John Chambers <jc:trillian.mit.edu>
M: C|
L: 1/8
K: Dm
% - - - - - - - - - -
|:\
d4 e4 | f6 z/f/e/d/ | c3c c3B | A4 a3a |\
d4 g3g | f3d f3e | d3e e3d | ^c8 ::
e3e e3e |  f4 ^f3f | g3g a3a | b4 g3g |\
c'3b agfe | d3d b3b | b2ag g3f | f4 c3c |
c3B B3A | A2 z/A/B/c/ d3d | =B3B f3g | ^c2A2 a3a |\
^f3f g3a | b3a g3a/e/ | f3f e3d | Hd8 |]
% - - - - - - - - - -

%%sep 1 1 500
%%sep 1 1 500

